svgs/sharp-light/road-barrier.svg

<svg xmlns="http://www.w3.org/2000/svg" viewBox="0 0 640 512"><!--! Font Awesome Pro 6.4.2 by @fontawesome - https://fontawesome.com License - https://fontawesome.com/license (Commercial License) Copyright 2023 Fonticons, Inc. --><path d="M32 48V32H0V48 80H0v32V272v32L0 464v16H32V464l0-160H608V464v16h32V464 304 272 112 80 48 32H608V48 80H32V48zm0 224l0-160H150.1l-80 160H32zM608 112V272H489.9l80-160H608zm-294.1 0h92.2l-80 160H233.9l80-160zM454.1 272H361.9l80-160h92.2l-80 160zm-176-160l-80 160H105.9l80-160h92.2z"/></svg>

<svg xmlns="http://www.w3.org/2000/svg" viewBox="0 0 640 512"><!--! Font Awesome Pro 6.6.0 by @fontawesome - https://fontawesome.com License - https://fontawesome.com/license (Commercial License) Copyright 2024 Fonticons, Inc. --><path d="M32 48l0-16L0 32 0 48 0 80s0 0 0 0l0 32L0 272l0 32L0 464l0 16 32 0 0-16 0-160 576 0 0 160 0 16 32 0 0-16 0-160 0-32 0-160 0-32 0-32 0-16-32 0 0 16 0 32L32 80l0-32zm0 224l0-160 118.1 0-80 160L32 272zM608 112l0 160-118.1 0 80-160 38.1 0zm-294.1 0l92.2 0-80 160-92.2 0 80-160zM454.1 272l-92.2 0 80-160 92.2 0-80 160zm-176-160l-80 160-92.2 0 80-160 92.2 0z"/></svg>
